packages/core/src/svgs/tokens/mono/KMON.svg

<svg width="24" height="24" viewBox="0 0 24 24" fill="none" xmlns="http://www.w3.org/2000/svg">
<path d="M9.88572 13.4402L11.0114 16.6229C11.0885 16.8197 11.2382 16.9793 11.4297 17.0688C11.6212 17.1581 11.8397 17.1704 12.04 17.1029C12.4572 16.9716 12.6857 16.5487 12.5486 16.1429L11.6572 13.6574L16.6399 15.9259C17.0686 16.1202 17.5829 15.9602 17.7886 15.5602C17.9942 15.1602 17.8229 14.6802 17.3999 14.4859L12.2857 12.1544L14.8286 8.04017C15.0572 7.6516 14.9029 7.16018 14.4629 6.95446C14.0229 6.74874 13.4629 6.88588 13.2286 7.27445L10.7942 11.2174L10.04 9.0916C9.963 8.89613 9.81416 8.73753 9.62398 8.64829C9.4338 8.55904 9.21669 8.54592 9.01715 8.6116C8.6 8.74303 8.36572 9.16588 8.50287 9.57163L9.05143 11.1144V11.143C9.02857 11.8859 8.77715 12.5716 8.03429 12.5716C6.70287 12.5716 6.70287 10.3087 6.70287 9.65736C6.70287 9.0116 7.18857 4.61161 12.8 4.61161C18.4171 4.61161 20.2799 9.41163 20.2799 12.1202C20.2799 14.8287 18.1942 19.4287 12.4286 19.4287C12.28 19.4287 11.2057 21.1431 12.7029 21.1431C17.7429 21.1431 21.9999 17.0401 21.9999 11.9716C21.9999 10.7716 21.6457 7.48588 18.6857 5.02875C17.0839 3.61091 15.0133 2.83726 12.8742 2.85731C10.6342 2.85731 8.80572 3.68589 7.60572 4.61161C5.09143 6.55446 4.94287 9.50296 4.94287 10.0574C4.94287 11.3774 5.70287 14.2859 7.98287 14.2859C8.34435 14.3056 8.70536 14.2394 9.03619 14.0923C9.36701 13.9452 9.65818 13.7218 9.88572 13.4402Z" fill="white"/>
<path d="M12.5886 19.4287V21.1431H12.5771C3.85714 21.1431 2 11.2688 2 11.2688L3.48572 10.8574C3.48572 13.0517 6.60571 19.4287 12.3029 19.4287H12.5886Z" fill="white"/>
</svg>

<svg xmlns="http://www.w3.org/2000/svg" width="24" height="24" fill="none" viewBox="0 0 24 24">
    <path fill="#fff" d="m9.886 13.44 1.125 3.183a.824.824 0 0 0 1.029.48c.417-.131.646-.554.509-.96l-.892-2.486 4.983 2.269c.429.194.943.034 1.149-.366a.78.78 0 0 0-.39-1.074l-5.113-2.332 2.543-4.114c.228-.388.074-.88-.366-1.086-.44-.205-1-.068-1.234.32l-2.435 3.943-.754-2.125a.823.823 0 0 0-1.023-.48c-.417.131-.651.554-.514.96l.548 1.542v.029c-.022.743-.274 1.429-1.017 1.429-1.331 0-1.331-2.263-1.331-2.915 0-.645.486-5.045 6.097-5.045 5.617 0 7.48 4.8 7.48 7.508s-2.086 7.309-7.851 7.309c-.149 0-1.223 1.714.274 1.714 5.04 0 9.297-4.103 9.297-9.171 0-1.2-.354-4.486-3.314-6.943a8.65 8.65 0 0 0-5.812-2.172c-2.24 0-4.068.829-5.268 1.755-2.515 1.942-2.663 4.891-2.663 5.445 0 1.32.76 4.229 3.04 4.229a2.29 2.29 0 0 0 1.903-.846"/>
    <path fill="#fff" d="M12.589 19.429v1.714h-.012C3.857 21.143 2 11.27 2 11.27l1.486-.412c0 2.195 3.12 8.572 8.817 8.572z"/>
</svg>
